X: 6772
T: Chapel Bell, The
R: jig
M: 6/8
K: Edorian
|:FA|B2E EFA|B2 e dBd|edB BAB|dfe dBA|
B2E EFA|B2 e dBd|edB BAF|AFE E:|
|:FA|B2e efe|def ~f2e|dBB BAB|dg/f/e dBA|
B2e efe|def ~f2e|dBB BAF|AFE E:|

